X:1
T:Title
%%score ( 1 2 ) ( 3 4 )
L:1/8
Q:1/4=83
M:4/4
K:D
V:1 treble nm="Grand Piano, Soprano"
V:2 treble 
V:3 bass nm="Choir Pad, Look Away 2 Calvarys Mountain"
V:4 bass 
V:1
 D[DF] [FA]>[GB] [FA][DF] [CE]<D | [DF][FA] [Gd]>[Ge] [Gd][GB] [FA]2 | %2
w: By~C.~E.~Rowley,~1900 * * * * * * *||
 D[DF] [FA]>[GB] [FA][DF] [CE]<D | D[DF][CE][DF] [EG]>[DF] [CE]2 | %4
w: ||
 D[DF] [FA]>[GB] [FA][DF] [CE]<D | [DF][FA] [Gd]>[Ge] [Gd][GB] [FA]2 | %6
w: ||
 [FA][FA] [Fd]>[Fe] [Fd][GB] [FA]<[DF] | D[DF][CE][CG] [DF]>[CE] D2 | z A3 z4 | z d3 z4 | %10
w: ||||
 z .A3 z4 | [DF] [CE]3- [CE]2- [CE]/ z/ z | z A3 z4 | z d3 z4 | z A3 z4 | %15
w: |||||
 z[K:bass] D3- D2- D/ z/ z | z8 |] %17
w: ||
V:2
 x8 | x8 | x8 | x8 | x8 | x8 | x8 | x8 | z FFF [GB][FA] [DF]2 | z GGG [Ge][Gd] [GB]2 | %10
 z FFF [GB][FA][DF]D | x8 | z FFF [GB][FA] [DF]2 | z GGG [Ge][Gd] [GB]2 | z FFF [GB][FA][DF][CE] | %15
 [CF][K:bass]A,A,B, B, A,3- | A,4 z4 |] %17
V:3
 [D,F,][D,A,] [D,D]>[D,D] [D,D][D,A,] [D,G,]<[D,F,] | [D,A,][D,D] [G,B,]>[G,C] [G,B,][G,D] [D,D]2 | %2
 [D,F,][D,A,] [D,D]>[D,D] [D,D][D,A,] [D,G,]<[D,F,] | %3
 [D,F,][D,A,][A,,A,][A,,A,] [A,,A,]>[A,,A,] [A,,A,]2 | %4
 [D,F,][D,A,] [D,D]>[D,D] [D,D][D,A,] [D,G,]<[D,F,] | [D,A,][D,D] [G,B,]>[G,C] [G,B,][G,D] [D,D]2 | %6
 [D,D][D,D] [D,A,]>[D,A,] [D,A,][D,D] [D,D]<[D,D] | %7
 [D,F,][D,A,][A,,A,][A,,A,] [A,,A,]>[A,,G,] [D,F,]2 | z [D,D][D,D][D,D] [D,D][D,D] [D,A,]2 | %9
 z [G,B,][G,B,][G,B,] [G,B,][G,B,] [G,D]2 | z [D,D][D,D][D,D] [D,D][D,D][D,D][F,A,] | %11
 z2 z A,- A, .A,3 | E,[D,D][D,D][D,D] [D,D][D,D] [D,A,]2 | %13
 z [G,B,][G,B,][G,B,] [G,B,][G,B,] [G,D]2 | z [A,D][A,D][A,D] [A,C][A,D]A,[A,,A,] | %15
 [A,,A,][D,F,][D,F,][D,G,] [D,G,] [D,F,]3- | [D,F,]4 z4 |] %17
V:4
 x8 | x8 | x8 | x8 | x8 | x8 | x8 | x8 | x8 | x8 | x8 | [D,A,]A, .A,2 .B,2 G,F, | x8 | x8 | x8 | %15
 x8 | x8 |] %17

